!!!OTL: Der Fa&szlig;binder (33), S. 118f
!!!id: T0158
**kern
*clefG2
*k[]
*G:
{8d
=1
8g
16g
16g
8g
=2
8g
8g
8b
=3
8a
8b
8cc
=4
8dd
8dd
8cc
=5
4b}
=6
{8d
=7
8g
16g
16g
8g
=8
8g
8g
8b
=9
8a
8b
8cc
=10
8dd
8dd
8cc
=11
4b}
=12
{8cc
=13
8b
8b
8dd
=14
8dd
8dd
8ee
=15
8dd
8b}
=16
{8b
=17
4b
8g
=18
4b
8dd
=19
8cc
8b}
=20
{8a
=21
8g
8g
8g
=22
4cc
8ee
=23
4dd}
=24
{8dd
=25
4a
8b
=26
8a
8cc
8b
=27
4g}
=28
{8cc
=29
8b
8b
8dd
=30
8dd
8dd
8ee
=31
8dd
8b}
=32
{8b
=33
4b
8g
=34
4b
8dd
=35
8cc
8b}
=36
{8a
=37
8g
8g
8g
=38
4cc
8ee
=39
4dd}
=40
{8dd
=41
4a
8b
=42
8a
8cc
8b
=43
4g}
==
*-
!!!minrhy: 16
!!!meters: 3/8 ]  ZZ[10
!!!cut: Der Fa&szlig;binder (33), S. 118f
!!!reg: Luxemburg
!!!trd: Singendes Volk, Esch-Alzette 1937 posth.
!!!rhy1: X_  X_XXX_  X_X_X_  X_X_X_  X_X_X_  X__
!!!rhy2: X_  X_XXX_  X_X_X_  X_X_X_  X_X_X_  X__
!!!key: T0158  16  G 3/8 ]  ZZ[10
!!!mod: SECHSTONSKALA DUR ?]  AMBITUS[9
!!!kad: 3333513351
!!!akz: 11253_11253_355_334_145_221_355_334_145_221_
!!!fot: 'a__a__b__c__d__e__b__c__d__e__
!!!for: 'a__a__b__c__d__e__b__c__d__e__
!!!fok: '^a_^a_^d_S__/__Sd_^d_S__/__Sd_
!! PHRAS[AUFTAKTIG]
!!!fkt: Liebeslieder
!!!bem: Reuland, hhh Johann Frank, geschriebenes Liederheft, 1910
!! THILL, Mathias:
!! PR[28] 2K[2] 2G[16] 3K[14] 3G[4] 4A[2] 4Ü[0] 5A[0] 6K[0] 6G[0]
!! 7K[0] 7G[0] 8A[0] MEHR[0] SI[38] ABS[50] SR[18] SP[20]
!! ST[12] 2k[12] 2g[10] 3k[0] 3g[8] 4d[0] 4ü[0] 5d[4] 6k[0] 6g[0]
!! 7k[0] 7g[0] 8d[0] mehr[0] si[34] dm[+4] sr[22] sp[12]
!! 1F[11] 2F[60] 3F[20] 4F[4] LF[0] 2P[4] 3P[2] 4P[0] TRI[0] DF[6] AB[55]
!! TF[0] U3K[0] U3[0] U4[0] U4Ü[0] U5[2] U6K[0] U6[0] U7K[0] U7[2]
!! N1[18] N2K[0] N2[24] N3K[0] N3[27] N4[18] N4Ü[0] N5[6] N6K[0] N6[4]
!!!n7k: 0] N7[0] O1[0] O2K[0] O2[0] O3K[0] O3[0] HÖ[0
!!!RNB: symbol: &szlig; = sz ligature (UTF-8: ÃŸ)
